X:1
T: The Duchess of Bedford's Cairn
C:William Marshall
R:Strathspey
Q: 128
K:F
M:4/4
L:1/16
|:AB|c3F d3F BA3 G2AB|c3F d3F EG3 G2AB|c3F d3F cF3 f3d|EG3 G3c AF3 F2AB|
c3F d3F BA3 G2AB|c3F d3F EG3 G2AB|c3F d3F cF3 f3d|EG3 G3c AF3 F2fg|
agfe f3c d4 c3f|d3f c3f a3g g2fg|agfe f3c d4 B3d|cfed cBAG AF3 F2fg|
agfe f3c d4 c3f|d3f c3f a3g g2fg|a3f g3e fc3 a3g|f3d cdcB AF3 F2:|
